X: 31
T: No_38_The_Raingods_Are_Coming_Back.krn
N: Derived from No_38_The_Raingods_Are_Coming_Back.krn
%%abc-version 2.0
%%abcx-abcm2ps-target-version 5.9.1 (29 Sep 2008)
%%abc-creator hum2abc beta
%%abcx-conversion-date 2019/03/15 08:25:35
%%humdrum-veritas 2538028949
%%humdrum-veritas-data 1434391940
%%linebreak <none>
%%barnumbers 0
L: 1/8
M: 2/4
K: B clef=bass
[K:clef=bass][M:2/4]DCB,2 [I:setbarnb 2]| 
DCC2 | 
DC CB, | 
B,/G,3/-G,2 | 
CB,B,2 | 
B,2G,3/G,/ | 
F,2G,2 | 
[M:3/4]G,F,F,2G,2 | 
[M:2/4](3DCCC2 | 
(3CB,B, B,B, | 
G,2F,2 | 
[M:3/4]G,2G,F,E,2 | 
[M:2/4]F,3/F,/F,2 | 
[M:3/4]B,G, G,F,E,2 | 
[M:2/4](3F,F,F,F,2 ||  
 [K:A] B,A,A,2 | 
[M:3/4]CB,B,2A,3/F,/ | 
[M:2/4](3B,A,A, F,F,/ z/ | 
B,A,B,2 | 
A,2B,2 | 
B,A,A,2 | 
A,2B,2 | 
B,A,A,2 | 
A,2B,2 | 
B,A,A,2 | 
A,2B,2 | 
B,2B,2 | 
B,A,A,2 | 
B,2B,2 | 
[M:3/4]A,3/F,/ (3B,A,A, F, z/ F,/ | 
[M:2/4]A,2A,3/A,/ | 
F,3/F,/F,2 | 
F,F, F,F, [I:setbarnb 34]:|]  
F,2F,2 | 
z4 | 
F,2F2 | 
AA/A/A2 | 
(3AGFF2 | 
E2C2 | 
(3CB,B,B,2 | 
G,2F,2 |]  



